assets/calendar.svg

<?xml version="1.0" encoding="UTF-8"?>
<svg width="38px" height="40px" viewBox="0 0 38 40" version="1.1" xmlns="http://www.w3.org/2000/svg" xmlns:xlink="http://www.w3.org/1999/xlink">
    <!-- Generator: Sketch 51.2 (57519) - http://www.bohemiancoding.com/sketch -->
    <title>calendar</title>
    <desc>Created with Sketch.</desc>
    <defs>
        <polygon id="path-1" points="0.05 0 37.3341667 0 37.3341667 39.95 0.05 39.95"></polygon>
    </defs>
    <g id="Page-1" stroke="none" stroke-width="1" fill="none" fill-rule="evenodd">
        <g id="Tickets-Copy" transform="translate(-79.000000, -152.000000)">
            <g id="menu" transform="translate(21.000000, 130.000000)">
                <g id="schedule">
                    <g id="calendar" transform="translate(58.000000, 22.000000)">
                        <g id="Group-3">
                            <mask id="mask-2" fill="white">
                                <use xlink:href="#path-1"></use>
                            </mask>
                            <g id="Clip-2"></g>
                            <path d="M36.6666667,2.66583333 L31.9983333,2.66583333 L31.9983333,0.6675 C31.9983333,0.299166667 31.7025,0 31.335,0 L26.6666667,0 C26.2991667,0 25.9991667,0.299166667 25.9991667,0.6675 L25.9991667,2.66583333 L11.335,2.66583333 L11.335,0.6675 C11.335,0.299166667 11.035,0 10.6675,0 L5.99916667,0 C5.63166667,0 5.33166667,0.299166667 5.33166667,0.6675 L5.33166667,2.66583333 L0.6675,2.66583333 C0.299166667,2.66583333 0,2.96583333 0,3.33333333 L0,39.3325 C0,39.7008333 0.299166667,40 0.6675,40 L36.6666667,40 C37.0341667,40 37.3341667,39.7008333 37.3341667,39.3325 L37.3341667,3.33333333 C37.3341667,2.96583333 37.0341667,2.66583333 36.6666667,2.66583333 Z M27.3341667,5.33166667 L30.6675,5.33166667 L30.6675,1.335 L27.3341667,1.335 L27.3341667,5.33166667 Z M6.66666667,5.33166667 L10,5.33166667 L10,1.335 L6.66666667,1.335 L6.66666667,5.33166667 Z M1.335,4.00083333 L5.33166667,4.00083333 L5.33166667,5.99916667 C5.33166667,6.3675 5.63166667,6.66666667 5.99916667,6.66666667 L10.6675,6.66666667 C11.035,6.66666667 11.335,6.3675 11.335,5.99916667 L11.335,4.00083333 L25.9991667,4.00083333 L25.9991667,5.99916667 C25.9991667,6.3675 26.2991667,6.66666667 26.6666667,6.66666667 L31.335,6.66666667 C31.7025,6.66666667 31.9983333,6.3675 31.9983333,5.99916667 L31.9983333,4.00083333 L35.9991667,4.00083333 L35.9991667,10 L1.335,10 L1.335,4.00083333 Z M1.335,38.665 L35.9991667,38.665 L35.9991667,11.335 L1.335,11.335 L1.335,38.665 Z" id="Fill-1" stroke="#FFFFFF" fill="#FFFFFF" mask="url(#mask-2)"></path>
                        </g>
                        <path d="M24.0008333,15.3316667 L5.99916667,15.3316667 L5.99916667,34.6683333 L31.335,34.6683333 L31.335,15.3316667 L24.0008333,15.3316667 Z M19.3325,21.335 L24.0008333,21.335 L24.0008333,16.6666667 L19.3325,16.6666667 L19.3325,21.335 Z M19.3325,27.3341667 L24.0008333,27.3341667 L24.0008333,22.6658333 L19.3325,22.6658333 L19.3325,27.3341667 Z M13.3333333,27.3341667 L18.0016667,27.3341667 L18.0016667,22.6658333 L13.3333333,22.6658333 L13.3333333,27.3341667 Z M13.3333333,21.335 L18.0016667,21.335 L18.0016667,16.6666667 L13.3333333,16.6666667 L13.3333333,21.335 Z M7.33416667,21.335 L11.9983333,21.335 L11.9983333,16.6666667 L7.33416667,16.6666667 L7.33416667,21.335 Z M7.33416667,27.3341667 L11.9983333,27.3341667 L11.9983333,22.6658333 L7.33416667,22.6658333 L7.33416667,27.3341667 Z M7.33416667,33.3333333 L11.9983333,33.3333333 L11.9983333,28.665 L7.33416667,28.665 L7.33416667,33.3333333 Z M13.3333333,33.3333333 L18.0016667,33.3333333 L18.0016667,28.665 L13.3333333,28.665 L13.3333333,33.3333333 Z M19.3325,33.3333333 L24.0008333,33.3333333 L24.0008333,28.665 L19.3325,28.665 L19.3325,33.3333333 Z M25.3316667,33.3333333 L30,33.3333333 L30,28.665 L25.3316667,28.665 L25.3316667,33.3333333 Z M25.3316667,27.3341667 L30,27.3341667 L30,22.6658333 L25.3316667,22.6658333 L25.3316667,27.3341667 Z M25.3316667,21.335 L30,21.335 L30,16.6666667 L25.3316667,16.6666667 L25.3316667,21.335 Z" id="Fill-4" stroke="#FFFFFF" fill="#FFFFFF"></path>
                    </g>
                </g>
            </g>
        </g>
    </g>
</svg>

<?xml version="1.0" encoding="UTF-8"?>
<svg version="1.1" viewBox="0 0 38 40" xmlns="http://www.w3.org/2000/svg" xmlns:xlink="http://www.w3.org/1999/xlink">
<title>calendar</title>
<desc>Created with Sketch.</desc>
<defs>
<polygon id="a" points="0.05 0 37.334 0 37.334 39.95 0.05 39.95"/>
</defs>
<g fill="none" fill-rule="evenodd">
<g transform="translate(-6 -152)">
<g transform="translate(6 152)">
<mask id="b" fill="white">
<use xlink:href="#a"/>
</mask>
<path d="m36.667 2.6658h-4.6683v-1.9983c0-0.36833-0.29583-0.6675-0.66333-0.6675h-4.6683c-0.3675 0-0.6675 0.29917-0.6675 0.6675v1.9983h-14.664v-1.9983c0-0.36833-0.3-0.6675-0.6675-0.6675h-4.6683c-0.3675 0-0.6675 0.29917-0.6675 0.6675v1.9983h-4.6642c-0.36833 0-0.6675 0.3-0.6675 0.6675v35.999c0 0.36833 0.29917 0.6675 0.6675 0.6675h35.999c0.3675 0 0.6675-0.29917 0.6675-0.6675v-35.999c0-0.3675-0.3-0.6675-0.6675-0.6675zm-9.3325 2.6658h3.3333v-3.9967h-3.3333v3.9967zm-20.668 0h3.3333v-3.9967h-3.3333v3.9967zm-5.3317-1.3308h3.9967v1.9983c0 0.36833 0.3 0.6675 0.6675 0.6675h4.6683c0.3675 0 0.6675-0.29917 0.6675-0.6675v-1.9983h14.664v1.9983c0 0.36833 0.3 0.6675 0.6675 0.6675h4.6683c0.3675 0 0.66333-0.29917 0.66333-0.6675v-1.9983h4.0008v5.9992h-34.664v-5.9992zm0 34.664h34.664v-27.33h-34.664v27.33z" fill="#BDC1C9" mask="url(#b)" stroke="#BDC1C9"/>
<path d="m24.001 15.332h-18.002v19.337h25.336v-19.337h-7.3342zm-4.6683 6.0033h4.6683v-4.6683h-4.6683v4.6683zm0 5.9992h4.6683v-4.6683h-4.6683v4.6683zm-5.9992 0h4.6683v-4.6683h-4.6683v4.6683zm0-5.9992h4.6683v-4.6683h-4.6683v4.6683zm-5.9992 0h4.6642v-4.6683h-4.6642v4.6683zm0 5.9992h4.6642v-4.6683h-4.6642v4.6683zm0 5.9992h4.6642v-4.6683h-4.6642v4.6683zm5.9992 0h4.6683v-4.6683h-4.6683v4.6683zm5.9992 0h4.6683v-4.6683h-4.6683v4.6683zm5.9992 0h4.6683v-4.6683h-4.6683v4.6683zm0-5.9992h4.6683v-4.6683h-4.6683v4.6683zm0-5.9992h4.6683v-4.6683h-4.6683v4.6683z" fill="#BDC1C9" stroke="#BDC1C9"/>
</g>
</g>
</g>
</svg>
